battery-remove.svg

<svg fill="currentColor" viewBox="0 0 24 24"><path d="M13.54 22H7.33C6.6 22 6 21.4 6 20.67V5.33C6 4.6 6.6 4 7.33 4H9V2h6v2h1.67C17.4 4 18 4.6 18 5.33V12c-3.31 0-6 2.69-6 6 0 1.54.58 2.94 1.54 4m8-1.88-1.42 1.42L18 19.41l-2.12 2.13-1.41-1.42L16.59 18l-2.12-2.12 1.41-1.41L18 16.59l2.12-2.12 1.42 1.41L19.41 18z"/></svg>

<svg  viewBox="0 0 24 24" fill="currentColor"><path  d="M13.54 22H7.33C6.6 22 6 21.4 6 20.67V5.33C6 4.6 6.6 4 7.33 4H9V2H15V4H16.67C17.4 4 18 4.6 18 5.33V12C14.69 12 12 14.69 12 18C12 19.54 12.58 20.94 13.54 22M21.54 20.12L20.12 21.54L18 19.41L15.88 21.54L14.47 20.12L16.59 18L14.47 15.88L15.88 14.47L18 16.59L20.12 14.47L21.54 15.88L19.41 18L21.54 20.12Z"/></svg>
